X:1
T:How Beautiful the Mystery
T:How Beautiful the Mystery
T:Arr. from Rossini by Henry Greatorex, 1851
T:Eric Schumacher, 2000
T:© 2000 Eric Schumacher Reproduce only in nonsalable, temporary worship media
C:Arr. from Rossini by Henry Greatorex, 1851
Z:© 2000 Eric Schumacher
Z:Reproduce only in nonsalable, temporary worship media
%%score ( 1 2 ) ( 3 4 )
L:1/8
M:3/4
K:G
V:1 treble 
V:2 treble 
V:3 bass 
V:4 bass 
V:1
 (GA) | [GB]4 [FA]2 | [EG]4 [DF]2 | [CF]4 [CE]2 | [CE]4 (AB) | [Ec]4 [EB]2 | [EA]4 [EG]2 | %7
w: 1.~How *|beau- ti-|ful the|mys- te-|ry: Th’e- *|ter- nal|Word comes|
w: 2.~Con- *|tent we|find Him|cra- dled|there A- *|mongst the|filth and|
w: 3.~By *|an- gry|swords and|dark de-|cree He’s *|driv- en|from His|
w: 4.~The *|spot- less|Lamb lays|down His|life, A *|curse up-|on a|
w: 5.~O! *|May our|hearts grow|ev- er|fond Of *|Ma- ry’s|pre- cious|
 ([D-G]6 [DF]4) [CD]2 | B4 [CA]2 | [Ec]4 [DB]2 | [Ee]4 [EB]2 | (d2 c2) [EA]2 | [DG]4 D2 | %13
w: down * To|live and|love and|die and|rise, * To|claim His|
w: beasts. * Who|would be-|lieve that|He will|be * Our|guide from|
w: land. * But|still He|hum- bly|bows His|head * To|trust His|
w: cross. * Then|lives that|He might|guar- an-|tee * That|no sheep|
w: boy: * Our|Christ, our|hope, our|heart’s de-|sire, * Our|King and|
 [GB]4 [DA]2 | [DG]4 |] %15
w: vic- tor’s|crown|
w: death to|peace!|
w: Fa- ther’s|hand.|
w: will be|lost.|
w: Sov’- reign|Joy!|
V:2
 G2 | x6 | x6 | x6 | x4 E2 | x6 | x6 | x12 | (B,2 D2) x2 | x6 | x6 | E4 x2 | x4 D2 | x6 | x4 |] %15
V:3
 (B,C) | [G,D]4 [G,C]2 | [E,B,]4 [B,,G,]2 | [C,G,]4 [C,G,]2 | [C,G,]4 ([C,E,][B,,^G,]) | %5
 [A,,A,]4 [B,,^G,]2 | [C,A,]4 [^C,^A,]2 | ([D,-B,]6 [D,A,]4) [D,F,]2 | [G,,G,]4 [G,,G,]2 | %9
 [G,,G,]4 [G,,G,]2 | [C,G,]4 [E,^G,]2 | [A,,A,]4 [C,A,]2 | [D,B,]4 [D,B,]2 | [D,D]4 [D,C]2 | %14
 [G,,G,B,]4 |] %15
V:4
 G,2 | x6 | x6 | x6 | x6 | x6 | x6 | x12 | x6 | x6 | x6 | x6 | x6 | x6 | x4 |] %15

